src/assets/svg/header-logo.svg

<svg width="200" height="63" viewBox="0 0 200 63" fill="none" xmlns="http://www.w3.org/2000/svg">
<g clip-path="url(#clip0)">
<path d="M18.4789 10.2672C18.4789 4.45 14.1118 0.321571 9.25147 0.321571C4.73676 0.321571 0 4.55687 0 10.348C0 15.7368 4.24363 20.2402 9.25147 20.2402C14.1118 20.2402 18.4789 15.6828 18.4789 10.2676V10.2672ZM9.25147 19.8642C5.10686 19.8642 4.02108 17.0495 4.02108 10.3476C4.02108 5.46863 4.61373 3.24363 5.84706 1.95687C6.68578 1.07255 7.82059 0.697062 9.22696 0.697062C12.0147 0.697062 13.3721 2.06422 13.9887 4.31618C14.3093 5.44216 14.4574 7.34559 14.4574 10.1064C14.4574 15.575 13.9392 17.5588 12.4098 18.8995C11.6941 19.5426 10.6333 19.8642 9.25196 19.8642H9.25147ZM20.65 0.750493V1.12598H22.9196V19.4623H20.65V19.8377H36.2917V13.7789H35.9711C35.65 15.5216 34.9838 16.9157 33.9971 17.9343C33.0348 18.9529 31.9 19.4623 30.6422 19.4623H26.4971V1.12598H28.7667V0.750003H20.65V0.750493ZM38.2819 0.750493V1.12598H40.5515V19.4623H38.2819V19.8377H46.399V19.4623H44.1294V1.12598H46.399V0.750003H38.2819V0.750493ZM46.9225 0.750493V1.12598H49.0196L55.8289 20.5882H56.5446L63.5015 1.12598H65.6235V0.750003H60.9113V1.12549H63.1319L57.926 15.6549L52.8191 1.12549H55.1873V0.750003H46.9225V0.750493ZM66.0843 0.750493V1.12598H68.3539V19.4623H66.0843V19.8377H81.849V13.9667H81.5284C80.7637 17.5054 78.6422 19.4623 76.076 19.4623H71.9314V9.78481H73.6088C75.2127 9.78481 76.4461 10.723 77.0382 13.7525H77.3588V5.4152H77.0382C76.3476 8.90049 75.0152 9.40932 73.0417 9.40932H71.9314V1.12598H75.9529C78.0005 1.12598 79.7275 2.54657 80.5172 5.33481H80.8377V0.750003H66.0843V0.750493ZM101.636 3.05588C101.636 1.25981 100.723 0.321571 99.3167 0.321571C97.4167 0.321571 95.6407 2.46618 95.6407 4.61079C95.6407 5.70981 96.1338 6.88971 96.4299 7.80098C92.902 10.1064 91.6436 11.9564 91.6436 14.3691C91.6436 17.1569 93.4201 20.2397 97.4907 20.2397C99.0451 20.2397 100.229 19.9181 101.586 18.6314C102.4 19.8108 103.19 20.2397 104.3 20.2397C106.57 20.2397 107.458 18.6044 107.507 16.7814C107.507 16.701 107.483 16.5402 107.433 16.3525H107.088C107.137 16.4868 107.162 16.6745 107.162 16.8083C107.162 17.7466 106.743 18.8191 106.002 18.8191C105.583 18.8191 105.238 18.551 104.991 18.0951L103.831 15.8701C104.621 14.7172 104.991 12.4657 105.065 10.4279C105.213 6.72892 105.805 7.05049 107.137 6.70196V6.32647H102.153V6.70196C104.102 6.70196 104.72 7.55981 104.72 10.2137C104.72 12.9211 104.102 14.7441 103.634 15.4412L99.4892 6.62157C100.896 5.62941 101.636 4.53039 101.636 3.05588V3.05588ZM99.3412 6.3C98.5765 4.87892 98.0583 3.51177 98.0583 2.57353C98.0583 1.36765 98.675 0.697062 99.6618 0.697062C100.723 0.697062 101.315 1.82304 101.315 3.10981C101.315 4.34265 100.748 5.30785 99.3412 6.3V6.3ZM99.0946 19.5157C96.7505 19.5157 94.5054 13.7525 94.5054 11.5539C94.5054 10.026 94.925 9.43628 96.5534 8.09608C96.6024 8.20294 96.948 9.00736 97.0961 9.32892L100.797 17.1299C101.044 17.6397 101.044 17.6931 101.438 18.3098C100.674 18.9799 99.9824 19.5157 99.0946 19.5157V19.5157ZM131.296 1.31373C130.556 1.31373 128.533 0.321571 126.732 0.321571C124.783 0.321571 122.71 1.15294 121.057 2.57353C118.96 4.36961 117.504 7.13088 117.504 10.348C117.504 15.6559 121.699 20.2402 126.732 20.2402C129.668 20.2402 130.876 18.6044 132.357 18.6044C132.751 18.6044 133.097 18.7922 133.171 19.2211H133.615V13.0824H135.219V12.7069H127.595V13.0819H130.136V14.3956C130.136 18.7652 128.878 19.8642 126.756 19.8642C124.684 19.8642 123.401 19.1941 122.587 17.6662C121.847 16.2721 121.526 14.1809 121.526 11.3662V8.65883C121.526 3.96765 122.686 0.697062 126.806 0.697062C129.692 0.697062 131.271 2.81471 132.11 6.21912H132.48V0.750493H132.061C131.888 1.17941 131.765 1.31373 131.296 1.31373V1.31373ZM150.276 5.25441C150.276 2.30539 147.809 0.670101 144.157 0.670101C142.973 0.670101 141.296 0.750493 140.407 0.750493H136.411V1.12598H138.68V19.4623H136.411V19.8377H144.527V19.4623H142.258V9.78481H143.985C144.947 9.78481 145.786 10.1328 146.304 10.9108C146.847 11.6882 147.143 13.1088 147.167 15.173C147.192 17.2103 147.537 18.4971 148.179 19.1941C148.845 19.9181 149.782 20.2397 151.016 20.2397C152.324 20.2397 152.99 20.052 153.902 18.9799L153.656 18.7387C153.286 19.1407 152.94 19.623 152.275 19.623C151.707 19.623 151.435 19.3819 151.287 18.926C151.164 18.4436 150.991 17.3181 150.893 15.5216C150.794 13.5917 150.597 12.5461 150.251 11.9294C149.93 11.3451 149.451 10.8623 148.87 10.5353C148.302 10.1873 147.118 9.8652 145.416 9.54363V9.40932C148.5 9.08775 150.276 7.58677 150.276 5.25441V5.25441ZM142.258 1.12598C142.677 1.09902 143.023 1.04559 143.319 1.04559C145.687 1.04559 146.476 2.225 146.476 5.52255C146.476 7.23824 146.205 8.09608 145.638 8.65883C145.144 9.14118 144.404 9.40932 143.047 9.40932H142.258V1.12598V1.12598Z" fill="black"/>
<path d="M154.807 19.4623H152.71V19.8377H157.398V19.4623H155.202L157.941 12.2779H163.862L166.724 19.4623H164.429V19.8377H172.719V19.4623H170.597L162.825 0H162.159L154.807 19.4623ZM160.827 4.58431L163.739 11.9029H158.064L160.827 4.58431ZM173.034 0.75049V1.12598H175.304V19.4623H173.034V19.8377H181.151V19.4623H178.881V1.12598H181.151V0.75H173.034V0.75049ZM182.958 0.75049V1.12598H185.227V19.4623H182.958V19.8377H187.892V19.4623H185.623V2.65392H185.672L196.774 19.8377H197.44V1.12598H199.71V0.75H194.775V1.12549H197.045V13.5108H196.996L188.78 0.75H182.958V0.75049ZM108.237 44.3382C107.026 43.3735 105.019 43.9662 103.228 43.9176C101.716 42.1074 97.9735 36.8485 96.4755 34.6931L96.4353 34.6554C95.8764 33.8771 95.279 33.1273 94.6451 32.4088C95.7632 33.0128 96.9149 33.5524 98.0946 34.025C98.6544 34.9843 100.112 37.1446 101.867 37.3877C104.737 37.7343 107.638 37.1505 110.194 35.7113C110.194 35.7113 106.971 33.1471 104.142 32.6672C101.912 32.3064 99.3603 33.0338 98.3216 33.3838C96.5293 32.6368 94.7829 31.784 93.0917 30.8299C91.2927 29.0716 89.0593 27.9005 86.6564 27.4574C86.6141 27.4487 86.5705 27.4491 86.5284 27.4585C86.4863 27.468 86.4467 27.4863 86.4123 27.5123C86.3767 27.5388 86.3467 27.5721 86.324 27.6103C86.3008 27.6493 86.2852 27.6924 86.278 27.7373C86.2656 27.8261 86.2872 27.9164 86.3383 27.9902C86.3624 28.0256 86.3939 28.0554 86.4305 28.0777C86.4671 28.1 86.508 28.1143 86.5505 28.1196C89.1226 28.5348 91.4221 30.0431 93.4348 32.1069C94.0299 33.6265 94.751 36.024 94.7054 37.3716C93.6971 37.7863 90.6711 39.2196 89.6623 41.7623C88.028 45.8142 90.3432 49.9794 90.3432 49.9794C90.3432 49.9794 93.9235 47.3931 95.4569 44.3059C96.6775 41.8755 95.9613 38.5618 95.3412 37.549C95.4319 36.3529 94.9829 34.6338 94.5745 33.373C96.1412 35.2815 97.5113 37.343 98.6642 39.5265C98.647 39.5864 98.647 39.6499 98.6642 39.7098C99.0025 41.4696 99.0025 43.2843 98.6642 45.0441C96.7441 46.3461 95.2363 48.2373 94.3373 50.4696C93.8538 51.8286 93.7748 53.2985 94.1098 54.7015C94.4446 56.1034 95.178 57.3598 96.2083 58.2985C96.2083 58.2985 98.8206 53.2662 100.339 50.8201C101.004 49.7044 99.7132 46.3152 99.2696 45.2377C99.5569 43.901 99.6338 42.5225 99.4966 41.1593C100.877 43.9453 102.056 46.8262 103.027 49.7799C102.467 50.7338 101.11 53.4064 101.705 55.9926C102.447 59.2255 107.636 62.0544 107.636 62.0544C107.355 59.6868 107.241 57.3005 107.294 54.9147C107.409 52.2637 104.737 50.324 103.677 49.6613C102.697 46.8577 101.536 44.1203 100.202 41.4662C100.949 42.4789 101.665 43.0181 102.245 43.7456C102.245 43.7456 105.216 48.223 107.793 50.2113C109.507 51.5368 114.203 50.6907 114.203 50.6907C114.4 50.4966 112.337 47.5765 108.237 44.3377V44.3382Z" fill="black"/>
</g>
<defs>
<clipPath id="clip0">
<rect width="200" height="62.2549" fill="white"/>
</clipPath>
</defs>
</svg>

<svg
      xmlns="http://www.w3.org/2000/svg"
      width="200"
      height="63"
      fill="#000"
      viewBox="0 0 200 63"
    >
     
        <path
          d="M18.479 10.267c0-5.817-4.367-9.945-9.228-9.945C4.737.322 0 4.557 0 10.348c0 5.389 4.244 9.892 9.251 9.892 4.86 0 9.228-4.557 9.228-9.972zM9.25 19.864c-4.144 0-5.23-2.815-5.23-9.516 0-4.88.593-7.104 1.826-8.391.839-.884 1.974-1.26 3.38-1.26 2.788 0 4.145 1.367 4.762 3.62.32 1.125.468 3.029.468 5.79 0 5.468-.518 7.452-2.047 8.793-.716.643-1.777.964-3.158.964zM20.65.75v.376h2.27v18.336h-2.27v.376h15.642v-6.06h-.32c-.322 1.744-.988 3.138-1.975 4.156-.962 1.019-2.097 1.528-3.355 1.528h-4.145V1.126h2.27V.75H20.65zm17.632 0v.376h2.27v18.336h-2.27v.376h8.117v-.376h-2.27V1.126h2.27V.75h-8.117zm8.64 0v.376h2.098l6.809 19.462h.716L63.5 1.126h2.123V.75H60.91v.375h2.22l-5.205 14.53-5.107-14.53h2.368V.75h-8.264zm19.162 0v.376h2.27v18.336h-2.27v.376H81.85v-5.871h-.32c-.765 3.538-2.887 5.495-5.453 5.495h-4.145V9.785h1.678c1.604 0 2.837.938 3.43 3.967h.32V5.415h-.32C76.347 8.9 75.014 9.41 73.041 9.41h-1.11V1.126h4.02c2.049 0 3.776 1.42 4.565 4.209h.32V.75H66.085zm35.552 2.306c0-1.796-.913-2.734-2.32-2.734-1.9 0-3.675 2.144-3.675 4.289 0 1.099.493 2.279.789 3.19-3.528 2.305-4.786 4.155-4.786 6.568 0 2.788 1.776 5.87 5.847 5.87 1.554 0 2.738-.32 4.095-1.608.814 1.18 1.604 1.609 2.714 1.609 2.27 0 3.158-1.636 3.207-3.459 0-.08-.024-.24-.074-.428h-.345c.049.134.074.321.074.455 0 .939-.419 2.011-1.16 2.011-.419 0-.764-.268-1.011-.724l-1.16-2.225c.79-1.153 1.16-3.404 1.234-5.442.148-3.7.74-3.378 2.072-3.726v-.376h-4.984v.376c1.949 0 2.567.858 2.567 3.512 0 2.707-.618 4.53-1.086 5.227l-4.145-8.82c1.407-.992 2.147-2.09 2.147-3.565zM99.341 6.3c-.764-1.421-1.283-2.788-1.283-3.726 0-1.206.617-1.877 1.604-1.877 1.061 0 1.653 1.126 1.653 2.413 0 1.233-.567 2.198-1.974 3.19zm-.246 13.216c-2.344 0-4.59-5.763-4.59-7.962 0-1.528.42-2.118 2.048-3.458.05.107.395.911.543 1.233l3.701 7.8c.247.51.247.564.641 1.18-.764.67-1.456 1.207-2.343 1.207zm32.201-18.202c-.74 0-2.763-.992-4.564-.992-1.949 0-4.022.83-5.675 2.252a10.207 10.207 0 00-3.553 7.774c0 5.308 4.195 9.892 9.228 9.892 2.936 0 4.144-1.636 5.625-1.636.394 0 .74.188.814.617h.444v-6.139h1.604v-.375h-7.624v.375h2.541v1.314c0 4.37-1.258 5.468-3.38 5.468-2.072 0-3.355-.67-4.169-2.198-.74-1.394-1.061-3.485-1.061-6.3V8.66c0-4.691 1.16-7.962 5.28-7.962 2.886 0 4.465 2.118 5.304 5.522h.37V.75h-.419c-.173.43-.296.564-.765.564zm18.98 3.94c0-2.949-2.467-4.584-6.119-4.584-1.184 0-2.861.08-3.75.08h-3.996v.376h2.269v18.336h-2.269v.376h8.116v-.376h-2.269V9.785h1.727c.962 0 1.801.348 2.319 1.126.543.777.839 2.198.863 4.262.025 2.037.37 3.324 1.012 4.021.666.724 1.603 1.046 2.837 1.046 1.308 0 1.974-.188 2.886-1.26l-.246-.241c-.37.402-.716.884-1.381.884-.568 0-.84-.241-.988-.697-.123-.482-.296-1.608-.394-3.404-.099-1.93-.296-2.976-.642-3.593a3.578 3.578 0 00-1.381-1.394c-.568-.348-1.752-.67-3.454-.991v-.135c3.084-.321 4.86-1.822 4.86-4.155zm-8.018-4.128c.419-.027.765-.08 1.061-.08 2.368 0 3.157 1.179 3.157 4.477 0 1.715-.271 2.573-.838 3.136-.494.482-1.234.75-2.591.75h-.789V1.126z"
        ></path>
        <path d="M154.807 19.462h-2.097v.376h4.688v-.376h-2.196l2.739-7.184h5.921l2.862 7.184h-2.295v.376h8.29v-.376h-2.122L162.825 0h-.666l-7.352 19.462zm6.02-14.878l2.912 7.319h-5.675l2.763-7.319zM173.034.75v.376h2.27v18.336h-2.27v.376h8.117v-.376h-2.27V1.126h2.27V.75h-8.117zm9.924 0v.376h2.269v18.336h-2.269v.376h4.934v-.376h-2.269V2.654h.049l11.102 17.184h.666V1.126h2.27V.75h-4.935v.375h2.27v12.386h-.049L188.78.75h-5.822zm-74.721 43.588c-1.211-.965-3.218-.372-5.009-.42-1.512-1.81-5.254-7.07-6.752-9.225l-.04-.038a28.694 28.694 0 00-1.79-2.246 33.358 33.358 0 003.449 1.616c.56.96 2.017 3.12 3.772 3.363 2.87.346 5.771-.237 8.327-1.677 0 0-3.223-2.564-6.052-3.044-2.23-.36-4.782.367-5.82.717a49.038 49.038 0 01-5.23-2.554c-1.8-1.758-4.033-2.93-6.436-3.373a.305.305 0 00-.244.055.36.36 0 00-.134.225c-.012.09.01.18.06.253a.3.3 0 00.213.13c2.572.415 4.871 1.923 6.884 3.987.595 1.52 1.316 3.917 1.27 5.265-1.008.414-4.034 1.848-5.043 4.39-1.634 4.052.681 8.217.681 8.217s3.58-2.586 5.114-5.673c1.22-2.43.504-5.744-.116-6.757.09-1.196-.358-2.915-.766-4.176a36.718 36.718 0 014.09 6.154.332.332 0 000 .183c.337 1.76.337 3.574 0 5.334-1.92 1.302-3.429 3.193-4.328 5.426a7.458 7.458 0 00-.227 4.232 7.086 7.086 0 002.098 3.596s2.613-5.032 4.131-7.478c.665-1.116-.626-4.505-1.07-5.582.288-1.337.365-2.715.228-4.079a65.465 65.465 0 013.53 8.62c-.56.955-1.917 3.627-1.322 6.214.742 3.232 5.931 6.061 5.931 6.061a50.979 50.979 0 01-.342-7.14c.115-2.65-2.557-4.59-3.617-5.253a68.804 68.804 0 00-3.475-8.195c.747 1.013 1.463 1.552 2.043 2.28 0 0 2.971 4.477 5.548 6.465 1.714 1.326 6.41.48 6.41.48.197-.194-1.866-3.114-5.966-6.353z"></path>
    </svg>
